Newaita-dark/.DP/32/mailspring-tray-full-newitems.svg

<svg xmlns="http://www.w3.org/2000/svg" xmlns:xlink="http://www.w3.org/1999/xlink" width="32px" height="32px" viewBox="0 0 32 32" version="1.1">
<g id="surface1">
<path style=" stroke:none;fill-rule:nonzero;fill:rgb(14.901961%,65.098041%,60.392159%);fill-opacity:1;" d="M 15.878906 2.894531 C 11.085938 2.882812 6.660156 5.472656 4.324219 9.65625 L 15.878906 17.5625 L 27.429688 9.65625 C 25.09375 5.472656 20.671875 2.882812 15.878906 2.894531 Z M 3.472656 11.496094 C 2.921875 12.976562 2.644531 14.546875 2.644531 16.128906 C 2.636719 19.53125 3.945312 22.804688 6.292969 25.269531 L 10.472656 20.128906 C 10.824219 19.710938 11.441406 19.652344 11.863281 19.996094 C 12.289062 20.339844 12.355469 20.960938 12.019531 21.386719 L 7.78125 26.605469 C 10.101562 28.394531 12.949219 29.363281 15.878906 29.355469 C 18.933594 29.355469 21.738281 28.332031 23.972656 26.605469 L 19.730469 21.386719 C 19.265625 21.386719 18.863281 21.070312 18.757812 20.617188 C 18.652344 20.167969 18.867188 19.699219 19.285156 19.492188 C 19.699219 19.285156 20.203125 19.390625 20.5 19.746094 C 20.804688 19.746094 21.09375 19.886719 21.28125 20.128906 L 25.457031 25.269531 C 27.808594 22.804688 29.117188 19.53125 29.105469 16.128906 C 29.105469 14.496094 28.816406 12.933594 28.277344 11.496094 L 16.441406 19.597656 C 16.101562 19.828125 15.652344 19.828125 15.3125 19.597656 Z M 3.472656 11.496094 "/>
</g>
</svg>

<svg xmlns="http://www.w3.org/2000/svg" width="32pt" height="32pt" viewBox="0 0 32 32"><path d="M15.875 2.895a13.197 13.197 0 0 0-11.55 6.761l11.55 7.906L27.43 9.657a13.203 13.203 0 0 0-11.555-6.761zM3.473 11.496c-.535 1.441-.828 3-.828 4.629 0 3.555 1.386 6.77 3.648 9.14l4.18-5.136a.993.993 0 0 1 1.68.18.997.997 0 0 1-.133 1.078L7.78 26.605a13.18 13.18 0 0 0 8.094 2.75c3.055 0 5.863-1.023 8.098-2.75l-4.243-5.218a1.003 1.003 0 0 1 .77-1.64 1 1 0 0 1 .781.382l4.176 5.137a13.169 13.169 0 0 0 3.648-9.141c0-1.629-.289-3.188-.824-4.629l-11.84 8.102c-.34.23-.789.23-1.128 0zm0 0" fill="#26a69a"/></svg>
